Yaru++/actions/16/snap.svg

<svg viewBox="0 0 24 24" xmlns="http://www.w3.org/2000/svg"><path d="m12 4a7 7 0 0 0 -7 7v4h3v-4a4 4 0 0 1 4-4 4 4 0 0 1 4 4v4h3v-4a7 7 0 0 0 -7-7zm-7 12v3h3v-3z" fill="#808080"/><path d="m15 16v4h5v-4zm1 1h3v2h-3z" fill="#1d99f3"/></svg>

<svg xmlns="http://www.w3.org/2000/svg" viewBox="0 0 24 24">
 <defs>
  <style id="current-color-scheme" type="text/css">
   .ColorScheme-Text { color:#808080; } .ColorScheme-Highlight { color:#1d99f3; }
  </style>
 </defs>
 <path style="fill:currentColor" class="ColorScheme-Text" d="M 12 4 A 7 7 0 0 0 5 11 L 5 15 L 8 15 L 8 11 A 4 4 0 0 1 12 7 A 4 4 0 0 1 16 11 L 16 15 L 19 15 L 19 11 A 7 7 0 0 0 12 4 z M 5 16 L 5 19 L 8 19 L 8 16 L 5 16 z"/>
 <path style="fill:currentColor" class="ColorScheme-Highlight" d="M 15 16 L 15 20 L 20 20 L 20 16 L 15 16 z M 16 17 L 19 17 L 19 19 L 16 19 L 16 17 z"/>
</svg>
